X:110
T:My Wife's A Wanton Wee Thing 
C:Joe Buchanan's Scottish Tome - Page 136.0
I:136 0
R:Jig
Z:Carl Allison
U:T=!tenuto!
L:1/8
M:6/8
K:D
"^Sprightly" !f!(f/e/) | (d2 TA) dfe | {c}d3 (A2 TG) | {g}=cdc cGE | =c3 (E2 T=c) |
(d2 TA) dfe | {c}d3 (A2 TG) | {G}FDF ECE | {FE}D3- D2 :| 
!mf!(F/G/) | ABA FDF | A3 {B}=c3 | G=cG E=C(E | G3) {^c}B3 |
AdA FDF | A3 {f}g3 | fdf ece | {^c}d3- d2 F/G/ |
ABA FDF | AdA FDF | GAG E=CE | "_cresc."G=cG E=CE | 
ABA FDF | AFA aeg | fga gfe | {c}d3 d2 |
!mf!(f/e/) | (d Tg) faf | {c}d3 (A TB) | =cdc cGE | =c3 (E T^c) |
(d2 TA) dfe | {c}d3 (A TG) | {G}FCF ECE | {FE}D3- D2 :|
!p!(f/g/) | aba fdf | a3 (g Tf) | gag e=ce | {f}g3 efg | 
aba fdf | a3 g2 v(f/g/ | f)df ece | {c}(d3 d2) (f/g/) |  
aba fdf | aba fdf | gag e=ce | gag e=ce |
aba fdf | a3 efg | fga gfe | {c}d3- d2 |]

